X: 1
T: Buttermilk Mary
M: 6/8
L: 1/8
R: jig
K: Gmaj
BGE EDB,| DGB dBG| c2e dBG| FA^G ABc|
Bd^c def| gfe edc| (3Bcd B cAd| BGF G2B:|
dgf gfe| dBG GBd| ea^g a2g| (3fga f def|
gbg faf| ege def| gdB AGA| BGF G3:|
